images/icon.svg

<?xml version="1.0" encoding="UTF-8" standalone="no"?>
<!DOCTYPE svg PUBLIC "-//W3C//DTD SVG 1.1//EN" "http://www.w3.org/Graphics/SVG/1.1/DTD/svg11.dtd">
<svg width="100%" height="100%" viewBox="0 0 256 256" version="1.1" xmlns="http://www.w3.org/2000/svg" xmlns:xlink="http://www.w3.org/1999/xlink" xml:space="preserve" xmlns:serif="http://www.serif.com/" style="fill-rule:evenodd;clip-rule:evenodd;stroke-linecap:round;stroke-linejoin:round;">
    <path d="M236,72L236,184C236,212.7 212.7,236 184,236L72,236C43.3,236 20,212.7 20,184L20,72C20,43.3 43.3,20 72,20L184,20C212.7,20 236,43.3 236,72Z" style="fill:url(#_Linear1);"/>
    <path d="M236,72L236,184C236,212.7 212.7,236 184,236L72,236C43.3,236 20,212.7 20,184L20,72C20,43.3 43.3,20 72,20L184,20C212.7,20 236,43.3 236,72Z" style="fill:white;fill-opacity:0.04;"/>
    <g transform="matrix(1,0,0,1,-0.000005,24.600005)">
        <g transform="matrix(3.45,0,0,3.45,32,58)">
            <path d="M6,22C4.903,22 4,21.097 4,20L4,4C4,2.903 4.903,2 6,2L14,2C14.639,1.999 15.253,2.253 15.704,2.706L19.292,6.294C19.746,6.745 20.001,7.36 20,8L20,20C20,21.097 19.097,22 18,22L6,22Z" style="fill:none;fill-rule:nonzero;stroke:rgb(248,251,255);stroke-width:8px;"/>
            <path d="M14,2L14,7C14,7.549 14.451,8 15,8L20,8" style="fill:none;fill-rule:nonzero;stroke:rgb(248,251,255);stroke-width:8px;"/>
            <path d="M10,9L8,9" style="fill:none;fill-rule:nonzero;stroke:rgb(248,251,255);stroke-width:8px;"/>
            <path d="M16,13L8,13" style="fill:none;fill-rule:nonzero;stroke:rgb(248,251,255);stroke-width:8px;"/>
            <path d="M16,17L8,17" style="fill:none;fill-rule:nonzero;stroke:rgb(248,251,255);stroke-width:8px;"/>
        </g>
        <g transform="matrix(3.45,0,0,3.45,141.2,58)">
            <path d="M6,22C4.903,22 4,21.097 4,20L4,4C4,2.903 4.903,2 6,2L14,2C14.639,1.999 15.253,2.253 15.704,2.706L19.292,6.294C19.746,6.745 20.001,7.36 20,8L20,20C20,21.097 19.097,22 18,22L6,22Z" style="fill:none;fill-rule:nonzero;stroke:rgb(248,251,255);stroke-width:8px;"/>
            <path d="M14,2L14,7C14,7.549 14.451,8 15,8L20,8" style="fill:none;fill-rule:nonzero;stroke:rgb(248,251,255);stroke-width:8px;"/>
            <path d="M10,9L8,9" style="fill:none;fill-rule:nonzero;stroke:rgb(248,251,255);stroke-width:8px;"/>
            <path d="M16,13L8,13" style="fill:none;fill-rule:nonzero;stroke:rgb(248,251,255);stroke-width:8px;"/>
            <path d="M16,17L8,17" style="fill:none;fill-rule:nonzero;stroke:rgb(248,251,255);stroke-width:8px;"/>
        </g>
    </g>
    <g transform="matrix(1,0,0,1,-0.000005,24.600005)">
        <g transform="matrix(3.1,0,0,3.1,91,83)">
            <path d="M5,12L19,12" style="fill:none;fill-rule:nonzero;stroke:url(#_Linear2);stroke-width:10px;"/>
            <path d="M12,5L19,12L12,19" style="fill:none;fill-rule:nonzero;stroke:url(#_Linear3);stroke-width:10px;"/>
        </g>
    </g>
    <defs>
        <linearGradient id="_Linear1" x1="0" y1="0" x2="1" y2="0" gradientUnits="userSpaceOnUse" gradientTransform="matrix(178,200,-200,178,40,28)"><stop offset="0" style="stop-color:rgb(30,90,168);stop-opacity:1"/><stop offset="1" style="stop-color:rgb(18,58,99);stop-opacity:1"/></linearGradient>
        <linearGradient id="_Linear2" x1="0" y1="0" x2="1" y2="0" gradientUnits="userSpaceOnUse" gradientTransform="matrix(84,0,0,84,86,128)"><stop offset="0" style="stop-color:rgb(255,209,102);stop-opacity:1"/><stop offset="1" style="stop-color:rgb(244,162,97);stop-opacity:1"/></linearGradient>
        <linearGradient id="_Linear3" x1="0" y1="0" x2="1" y2="0" gradientUnits="userSpaceOnUse" gradientTransform="matrix(84,0,0,84,86,128)"><stop offset="0" style="stop-color:rgb(255,209,102);stop-opacity:1"/><stop offset="1" style="stop-color:rgb(244,162,97);stop-opacity:1"/></linearGradient>
    </defs>
</svg>

<svg width="256" height="256" viewBox="0 0 256 256" fill="none" xmlns="http://www.w3.org/2000/svg">
  <defs>
    <linearGradient id="bg" x1="40" y1="28" x2="218" y2="228" gradientUnits="userSpaceOnUse">
      <stop stop-color="#1E5AA8"/>
      <stop offset="1" stop-color="#123A63"/>
    </linearGradient>
    <linearGradient id="accent" x1="86" y1="128" x2="170" y2="128" gradientUnits="userSpaceOnUse">
      <stop stop-color="#FFD166"/>
      <stop offset="1" stop-color="#F4A261"/>
    </linearGradient>
    <filter id="shadow" x="0" y="0" width="256" height="256" filterUnits="userSpaceOnUse" color-interpolation-filters="sRGB">
      <feDropShadow dx="0" dy="10" stdDeviation="12" flood-color="#0A223A" flood-opacity="0.22"/>
    </filter>
  </defs>

  <rect x="20" y="20" width="216" height="216" rx="52" fill="url(#bg)"/>
  <rect x="20" y="20" width="216" height="216" rx="52" fill="white" fill-opacity="0.04"/>

  <g filter="url(#shadow)" stroke="#F8FBFF" stroke-width="8" stroke-linecap="round" stroke-linejoin="round">
    <g transform="translate(32 58) scale(3.45)">
      <path vector-effect="non-scaling-stroke" d="M6 22a2 2 0 0 1-2-2V4a2 2 0 0 1 2-2h8a2.4 2.4 0 0 1 1.704.706l3.588 3.588A2.4 2.4 0 0 1 20 8v12a2 2 0 0 1-2 2z" />
      <path vector-effect="non-scaling-stroke" d="M14 2v5a1 1 0 0 0 1 1h5" />
      <path vector-effect="non-scaling-stroke" d="M10 9H8" />
      <path vector-effect="non-scaling-stroke" d="M16 13H8" />
      <path vector-effect="non-scaling-stroke" d="M16 17H8" />
    </g>
    <g transform="translate(141.2 58) scale(3.45)">
      <path vector-effect="non-scaling-stroke" d="M6 22a2 2 0 0 1-2-2V4a2 2 0 0 1 2-2h8a2.4 2.4 0 0 1 1.704.706l3.588 3.588A2.4 2.4 0 0 1 20 8v12a2 2 0 0 1-2 2z" />
      <path vector-effect="non-scaling-stroke" d="M14 2v5a1 1 0 0 0 1 1h5" />
      <path vector-effect="non-scaling-stroke" d="M10 9H8" />
      <path vector-effect="non-scaling-stroke" d="M16 13H8" />
      <path vector-effect="non-scaling-stroke" d="M16 17H8" />
    </g>
  </g>

  <g stroke="url(#accent)" stroke-width="10" stroke-linecap="round" stroke-linejoin="round">
    <g transform="translate(91 83) scale(3.1)">
      <path vector-effect="non-scaling-stroke" d="M5 12h14" />
      <path vector-effect="non-scaling-stroke" d="m12 5 7 7-7 7" />
    </g>
  </g>
</svg>
